assets/images/sponsors-logos/man-ahl.svg

<svg xmlns="http://www.w3.org/2000/svg" preserveAspectRatio="xMinYMin" viewBox="0 0 293 101" width="114pt">
  <path d="M115.47506 99.46094H113.876V.04426917h1.59906V99.46094M30.7656 65.4964c.2532-.542266.807866-.92093 1.445333-.92093h1.827599c.8812 0 1.593734.7172 1.593734 1.5964v31.63802c0 .89219-.712534 1.60834-1.593734 1.60834h-1.637466l.037467-30.12663-12.961467 30.12663H16.164L3.2026 69.2916l.0317733 30.12663H1.5916666C.709896 99.41823 0 98.70208 0 97.80989V66.17187c0-.8792.709896-1.5964 1.5916666-1.5964H3.42396c.6421866 0 1.1947866.378664 1.45104.92093L17.8156 95.5l12.95-30.0036m35.789065 7.7172h1.6016v2.86453h.110935c1.79533-3.01306 5.9984-3.6276 8.013065-3.6276 7.370265 0 9.965065 5.42707 9.965065 10.11974v15.23962c0 .89219-.7084 1.60834-1.58133 1.60834h-1.61614v-16.3417c0-4.47133-1.8416-7.56453-7.022395-7.56453-4.656135 0-7.7072 3.502-7.8692 8.62867v15.27756h-1.612c-.874935 0-1.5828-.71615-1.5828-1.60834V74.80987c0-.8812.707865-1.59627 1.5828-1.59627m-7.1792 26.20463c-.871865 0-1.5916-.71615-1.5916-1.60834l-.136-2.06145C55.247865 98.70729 53.30413 100 48.22293 100c-4.87453 0-8.792264-2.36719-8.792264-7.61979 0-7.25261 7.1652-7.97914 14.077199-8.78648 2.6484-.25 4.121865-.9036 4.121865-3.724 0-3.6448-3.63853-4.74733-7.452665-4.74733-4.017199 0-7.604665 1.82813-7.751999 6.05827H40.85213s-1.718798-.0156-1.3776-1.88374c1.052-4.76146 5.726536-6.8464 11.105735-6.8464 4.619735 0 10.2504 1.3672 10.2504 8.3828v13.82656c0 3.1073.381865 4.75834.381865 4.75834h-1.847465M57.62973 84.91307h-.1068c-.40573.7624-1.832265 1.01146-2.6912 1.15986-5.44.96248-12.201064.96248-12.201064 6.04582 0 3.20937 2.7944 5.19114 5.842799 5.19114 4.932265 0 9.156265-3.10573 9.156265-8.23333v-4.16349m-35.277597-46.8652v18.649064H0V.0000025h29.445333L43.12973 19.182802 56.80933.0000025h29.436V56.696934h-22.3396V38.04787l-13.4896 18.649064H35.840132" fill="#1c4f9c"/>
  <path d="M191.21866 21.774002c4.09067-5.76 8.42-9.797466 12.90134-12.567733-9.92667.5-19.42534 4.273466-27.46534 15.319733-1.03333 1.4188-1.93466 2.846933-2.74133 4.288533 5-2.468133 9.988-3.45 14.92533-3.583865.75067-1.123335 1.53867-2.272401 2.38-3.456668" fill="#73d1e2"/>
  <path d="M157.91466 73.486c19.50934-12.764666 13.968-22.8428 30.92534-48.256265-4.93867.1348-9.928 1.116667-14.928 3.584267-8.864 15.831868-6.016 33.160932-32.752 54.427198" fill="#12b1d2"/>
  <path d="M276.848 4.2240024c-20.096 11.8505326-48.63734-9.9031998-72.72934 4.9822666 20.43067-1.026533 42.67867 11.8192 57.78667 3.734933" fill="#73d1e2"/>
  <path d="M191.21866 21.774002c-.84133 1.184267-1.62933 2.333333-2.38 3.456668 4.36934-.1208 8.69734.420932 12.95334 1.1808 18.89066-19.049468 36.65866.186932 55.59733-10.836001v-.000934.000934l4.51467-2.6348c-15.108 8.084266-37.35467-4.760933-57.784-3.7344-4.48134 2.770267-8.81067 6.807733-12.90134 12.567733" fill="#12b1d2"/>
  <path d="M185.04266 54.2604c5.71467-13.604665 11.28-22.3312 16.75067-27.84893-4.25867-.759868-8.58533-1.3016-12.95333-1.181735C171.88133 50.6432 177.424 60.721334 157.916 73.486l25.04133-14.5772c.68667-1.4244 1.38-2.968666 2.08533-4.6484" fill="#117fb7"/>
  <path d="M257.38933 15.575469v-.000934z" fill="#73d1e2"/>
  <path d="M201.79333 26.41147c3.84667.685865 7.63867 1.551065 11.352 2.265065 13.67067-10.6796 25.80133-3.328133 35.7-8.1708.41333-.212.82667-.437466 1.24-.678133l7.30267-4.252133c-18.936 11.023466-36.70534-8.2124-55.59467 10.836001" fill="#117fb7"/>
  <path d="M257.38933 15.576002v-.001067.001067" fill="#73d1e2"/>
  <path d="M196.61066 50.959335c5.716-11.302535 11.24-18.1468 16.53467-22.2828-3.71333-.714-7.50533-1.578133-11.352-2.265065-5.47067 5.51773-11.03467 14.244265-16.74933 27.84893-.708 1.679734-1.40134 3.224-2.08667 4.64747" fill="#0f67a3"/>
  <path d="M189.62266 66.8724c-8.11466 21.00364-28.816 9.66507-61.78573 24.125C162.5 77.40267 188.624 97.13803 198.97066 68.854134c4.284-11.7068 8.46134-20.299464 12.42534-26.503064l-14.78667 8.60933c-2.27733 4.516134-4.65067 9.86507-6.98667 15.912M250.08533 19.827602l-.13867.080267c.04667-.0272.09334-.052667.13867-.080267" fill="#73d1e2"/>
  <path d="M249.60133 20.109869c.116-.0656.232-.133334.34533-.2016l.13734-.081734c-.412.241734-.824.4672-1.23867.6792.25467-.124533.504-.255733.756-.395866M249.94666 19.908269c-.11333.068266-.22933.136-.34533.2016" fill="#73d1e2"/>
  <path d="M248.84533 20.505202c-9.89867 4.8432-22.02933-2.507867-35.7 8.171868 3.176.6104 6.296 1.11413 9.34533 1.302665 9.176-6.607866 17.756-5.062533 26.35467-9.474533" fill="#0f67a3"/>
  <path d="M211.39733 42.350535c3.81333-5.940665 7.49867-9.7812 11.09333-12.3708-3.04933-.188135-6.16933-.690665-9.34533-1.302665-5.29467 4.136-10.82 10.97973-16.53467 22.282265" fill="#114d8a"/>
  <path d="M189.62266 66.8724c2.336-6.04693 4.70934-11.395866 6.98667-15.912l-13.652 7.94747c-11.32267 23.34053-21.06667 14.0036-55.1204 32.08953 32.96973-14.45993 53.67107-3.12136 61.78573-24.125" fill="#12b1d2"/>
  <path fill="#73d1e2" d="M237.44133 27.17187h.01666667v.01666667H237.44133zM237.44133 27.189602H237.44z"/>
  <path d="M127.8364 90.99844c34.0556-18.08697 43.79693-8.75111 55.12093-32.09057" fill="#117fb7"/>
  <path d="M249.6 20.110402c-.24934.140133-.50134.2708-.75467.3948-8.59867 4.4136-17.17867 2.866667-26.35467 9.474533 5.208.3244 10.21334-.266135 14.95067-2.790133" fill="#114d8a"/>
  <path fill="#73d1e2" d="M243.39333 23.706269h.01666667v.01666667H243.39333z"/>
  <path d="M222.49066 29.98067c-3.596 2.589065-7.28 6.428665-11.09466 12.3704l26.044-15.161468c-4.736 2.523998-9.74134 3.114533-14.94934 2.791068" fill="#143e7a"/>
  <path d="M262.132 55.05267c0-1.5756.86533-2.364135 2.59466-2.364135.556 0 1.05067.0776 1.48534.2328.432.154135.72533.262535.88.323465v31.29067h-4.96v-14.3704h-16.596v14.3704h-5.00667v-29.4828c0-.80267.232-1.396936.69467-1.784935.464-.385465 1.112-.5792 1.94666-.5792.52667 0 1.01334.069735 1.46134.2088.448.1396.74933.255735.904.347465v12.609334h16.596V55.05267M271.95866 55.05267c0-.80267.232-1.396936.696-1.784935.46267-.385465 1.11334-.5792 1.948-.5792.524 0 1.01067.069735 1.45867.209865.448.138535.75067.25467.904.348v26.97853H292.496v4.31054h-20.53734v-29.4828M220.028 56.85267c-.36134 0-6.408 15.11613-6.408 15.11613h12.61333S220.388 56.85267 220.028 56.85267m.08133-4.76667c3.88533 0 5.26933 5.343734 6.97867 9.30467 1.728 4.0052 9.31466 23.14573 9.31466 23.14573H231.396l-3.10534-8.25253h-16.364l-3.10533 8.25253h-5.00667s7.588-19.14053 9.31467-23.14573c1.70933-3.960936 3.09333-9.30467 6.98-9.30467" fill="#1c4f9c"/>
  <path d="M173.912 28.814002c-3.756 1.854798-7.468 4.599998-11.27067 8.354798-17.264 17.0468-3.24933 33.27387-34.72307 53.78016l13.24307-7.70776C167.89466 61.974934 165.048 44.64587 173.912 28.814002" fill="#73d1e2"/>
  <path d="M127.8364 91.46615v-.73855L276.872 3.899469v.7406667L127.8364 91.46615" fill="#1c4f9c"/>
</svg>

<?xml version="1.0" encoding="UTF-8" standalone="no"?>
<!DOCTYPE svg PUBLIC "-//W3C//DTD SVG 1.1//EN" "http://www.w3.org/Graphics/SVG/1.1/DTD/svg11.dtd">
<svg xmlns="http://www.w3.org/2000/svg" xmlns:xl="http://www.w3.org/1999/xlink" version="1.1" preserveAspectRatio="xMinYMin" viewBox="0 0 293 101" width="293pt" height="101pt" xmlns:dc="http://purl.org/dc/elements/1.1/">
  <metadata> Produced by OmniGraffle 7.5 
    <dc:date>2017-12-02 16:15:40 +0000</dc:date>
  </metadata>
  <defs/>
  <g>
    <title>Canvas 1</title>
    <g>
      <title>Layer 1</title>
      <path d="M 115.47506 99.46094 L 113.876 99.46094 L 113.876 .044269166 L 115.47506 .044269166 L 115.47506 99.46094" fill="#1c4f9c"/>
      <path d="M 30.7656 65.4964 C 31.0188 64.954134 31.573466 64.57547 32.210933 64.57547 L 34.038532 64.57547 C 34.919732 64.57547 35.632266 65.29267 35.632266 66.17187 L 35.632266 97.80989 C 35.632266 98.70208 34.919732 99.41823 34.038532 99.41823 L 32.401066 99.41823 L 32.438533 69.2916 L 19.477066 99.41823 L 16.164 99.41823 L 3.2026 69.2916 L 3.2343733 99.41823 L 1.5916666 99.41823 C .709896 99.41823 0 98.70208 0 97.80989 L 0 66.17187 C 0 65.29267 .709896 64.57547 1.5916666 64.57547 L 3.42396 64.57547 C 4.0661466 64.57547 4.6187466 64.954134 4.875 65.4964 L 17.8156 95.5 L 30.7656 65.4964 M 66.554665 73.2136 L 68.156265 73.2136 L 68.156265 76.07813 L 68.2672 76.07813 C 70.06253 73.06507 74.2656 72.45053 76.280265 72.45053 C 83.65053 72.45053 86.24533 77.8776 86.24533 82.57027 L 86.24533 97.80989 C 86.24533 98.70208 85.53693 99.41823 84.664 99.41823 L 83.04786 99.41823 L 83.04786 83.07653 C 83.04786 78.6052 81.20626 75.512 76.025465 75.512 C 71.36933 75.512 68.318265 79.014 68.156265 84.14067 L 68.156265 99.41823 L 66.544265 99.41823 C 65.66933 99.41823 64.961465 98.70208 64.961465 97.80989 L 64.961465 74.80987 C 64.961465 73.92867 65.66933 73.2136 66.544265 73.2136 M 59.365065 99.41823 C 58.4932 99.41823 57.773465 98.70208 57.773465 97.80989 L 57.637465 95.74844 C 55.247865 98.70729 53.30413 100 48.22293 100 C 43.3484 100 39.430666 97.63281 39.430666 92.38021 C 39.430666 85.1276 46.595866 84.40107 53.507865 83.59373 C 56.156265 83.34373 57.62973 82.69013 57.62973 79.86973 C 57.62973 76.22493 53.9912 75.1224 50.177065 75.1224 C 46.159866 75.1224 42.5724 76.95053 42.425066 81.18067 L 40.85213 81.18067 C 40.85213 81.18067 39.133332 81.16507 39.47453 79.29693 C 40.52653 74.53547 45.201066 72.45053 50.580265 72.45053 C 55.2 72.45053 60.830665 73.81773 60.830665 80.83333 L 60.830665 94.65989 C 60.830665 97.76719 61.21253 99.41823 61.21253 99.41823 L 59.365065 99.41823 M 57.62973 84.91307 L 57.52293 84.91307 C 57.1172 85.67547 55.690665 85.92453 54.83173 86.07293 C 49.39173 87.03541 42.630666 87.03541 42.630666 92.11875 C 42.630666 95.32812 45.425066 97.30989 48.473465 97.30989 C 53.40573 97.30989 57.62973 94.20416 57.62973 89.07656 L 57.62973 84.91307 M 22.352133 38.04787 L 22.352133 56.696934 L 0 56.696934 L 0 25e-7 L 29.445333 25e-7 L 43.12973 19.182802 L 56.80933 25e-7 L 86.24533 25e-7 L 86.24533 56.696934 L 63.90573 56.696934 L 63.90573 38.04787 L 50.41613 56.696934 L 35.840132 56.696934" fill="#1c4f9c"/>
      <path d="M 191.21866 21.774002 C 195.30933 16.014002 199.63866 11.976536 204.12 9.206269 C 194.19333 9.706269 184.69466 13.479735 176.65466 24.526002 C 175.62133 25.944802 174.72 27.372935 173.91333 28.814535 C 178.91333 26.346402 183.90133 25.364535 188.83866 25.23067 C 189.58933 24.107335 190.37733 22.958269 191.21866 21.774002" fill="#73d1e2"/>
      <path d="M 157.91466 73.486 C 177.424 60.721334 171.88266 50.6432 188.84 25.229735 C 183.90133 25.364535 178.912 26.346402 173.912 28.814002 C 165.048 44.64587 167.896 61.974934 141.16 83.2412" fill="#12b1d2"/>
      <path d="M 276.848 4.2240024 C 256.752 16.074535 228.21066 -5.6791974 204.11866 9.206269 C 224.54933 8.179736 246.79733 21.025469 261.90533 12.941202" fill="#73d1e2"/>
      <path d="M 191.21866 21.774002 C 190.37733 22.958269 189.58933 24.107335 188.83866 25.23067 C 193.208 25.10987 197.536 25.651602 201.792 26.41147 C 220.68266 7.362002 238.45066 26.598402 257.38933 15.575469 L 257.38933 15.574535 L 257.38933 15.575469 L 261.904 12.940669 C 246.796 21.024935 224.54933 8.179736 204.12 9.206269 C 199.63866 11.976536 195.30933 16.014002 191.21866 21.774002" fill="#12b1d2"/>
      <path d="M 185.04266 54.2604 C 190.75733 40.655735 196.32266 31.9292 201.79333 26.41147 C 197.53466 25.651602 193.208 25.10987 188.84 25.229735 C 171.88133 50.6432 177.424 60.721334 157.916 73.486 L 182.95733 58.9088 C 183.644 57.4844 184.33733 55.940134 185.04266 54.2604" fill="#117fb7"/>
      <path d="M 257.38933 15.575469 L 257.38933 15.574535 Z" fill="#73d1e2"/>
      <path d="M 201.79333 26.41147 C 205.64 27.097335 209.432 27.962535 213.14533 28.676535 C 226.816 17.996935 238.94666 25.348402 248.84533 20.505735 C 249.25866 20.293735 249.672 20.068269 250.08533 19.827602 L 257.388 15.575469 C 238.452 26.598935 220.68266 7.363069 201.79333 26.41147" fill="#117fb7"/>
      <path d="M 257.38933 15.576002 L 257.38933 15.574935 L 257.38933 15.576002" fill="#73d1e2"/>
      <path d="M 196.61066 50.959335 C 202.32666 39.6568 207.85066 32.812535 213.14533 28.676535 C 209.432 27.962535 205.64 27.098402 201.79333 26.41147 C 196.32266 31.9292 190.75866 40.655735 185.044 54.2604 C 184.336 55.940134 183.64266 57.4844 182.95733 58.90787" fill="#0f67a3"/>
      <path d="M 189.62266 66.8724 C 181.508 87.87604 160.80666 76.53747 127.83693 90.9974 C 162.5 77.40267 188.624 97.13803 198.97066 68.854134 C 203.25466 57.147334 207.432 48.55467 211.396 42.35107 L 196.60933 50.9604 C 194.332 55.476534 191.95866 60.82547 189.62266 66.8724" fill="#73d1e2"/>
      <path d="M 250.08533 19.827602 L 249.94666 19.907869 C 249.99333 19.880669 250.04 19.855202 250.08533 19.827602" fill="#73d1e2"/>
      <path d="M 249.60133 20.109869 C 249.71733 20.044269 249.83333 19.976535 249.94666 19.908269 L 250.084 19.826535 C 249.672 20.068269 249.26 20.293735 248.84533 20.505735 C 249.1 20.381202 249.34933 20.250002 249.60133 20.109869" fill="#73d1e2"/>
      <path d="M 249.94666 19.908269 C 249.83333 19.976535 249.71733 20.044269 249.60133 20.109869" fill="#73d1e2"/>
      <path d="M 248.84533 20.505202 C 238.94666 25.348402 226.816 17.997335 213.14533 28.67707 C 216.32133 29.28747 219.44133 29.7912 222.49066 29.979735 C 231.66666 23.371869 240.24666 24.917202 248.84533 20.505202" fill="#0f67a3"/>
      <path d="M 211.39733 42.350535 C 215.21066 36.40987 218.896 32.569335 222.49066 29.979735 C 219.44133 29.7916 216.32133 29.28907 213.14533 28.67707 C 207.85066 32.81307 202.32533 39.6568 196.61066 50.959335" fill="#114d8a"/>
      <path d="M 189.62266 66.8724 C 191.95866 60.82547 194.332 55.476534 196.60933 50.9604 L 182.95733 58.90787 C 171.63466 82.2484 161.89066 72.91147 127.83693 90.9974 C 160.80666 76.53747 181.508 87.87604 189.62266 66.8724" fill="#12b1d2"/>
      <rect x="237.44133" y="27.17187" width=".016666666" height=".016666666" fill="#73d1e2"/>
      <path d="M 237.44133 27.189602 L 237.44 27.189602 Z" fill="#73d1e2"/>
      <path d="M 127.8364 90.99844 C 161.892 72.91147 171.63333 82.24733 182.95733 58.90787" fill="#117fb7"/>
      <path d="M 249.6 20.110402 C 249.35066 20.250535 249.09866 20.381202 248.84533 20.505202 C 240.24666 24.918802 231.66666 23.371869 222.49066 29.979735 C 227.69866 30.304135 232.704 29.7136 237.44133 27.189602" fill="#114d8a"/>
      <rect x="243.39333" y="23.706269" width=".016666666" height=".016666666" fill="#73d1e2"/>
      <path d="M 222.49066 29.98067 C 218.89466 32.569735 215.21066 36.409335 211.396 42.35107 L 237.44 27.189602 C 232.704 29.7136 227.69866 30.304135 222.49066 29.98067" fill="#143e7a"/>
      <path d="M 262.132 55.05267 C 262.132 53.47707 262.99733 52.688535 264.72666 52.688535 C 265.28266 52.688535 265.77733 52.766135 266.212 52.921335 C 266.644 53.07547 266.93733 53.18387 267.092 53.2448 L 267.092 84.53547 L 262.132 84.53547 L 262.132 70.16507 L 245.536 70.16507 L 245.536 84.53547 L 240.52933 84.53547 L 240.52933 55.05267 C 240.52933 54.25 240.76133 53.655734 241.224 53.267735 C 241.688 52.88227 242.336 52.688535 243.17066 52.688535 C 243.69733 52.688535 244.184 52.75827 244.632 52.897335 C 245.08 53.036935 245.38133 53.15307 245.536 53.2448 L 245.536 65.854134 L 262.132 65.854134 L 262.132 55.05267" fill="#1c4f9c"/>
      <path d="M 271.95866 55.05267 C 271.95866 54.25 272.19066 53.655734 272.65466 53.267735 C 273.11733 52.88227 273.768 52.688535 274.60266 52.688535 C 275.12666 52.688535 275.61333 52.75827 276.06133 52.8984 C 276.50933 53.036935 276.812 53.15307 276.96533 53.2464 L 276.96533 80.22493 L 292.496 80.22493 L 292.496 84.53547 L 271.95866 84.53547 L 271.95866 55.05267" fill="#1c4f9c"/>
      <path d="M 220.028 56.85267 C 219.66666 56.85267 213.62 71.9688 213.62 71.9688 L 226.23333 71.9688 C 226.23333 71.9688 220.388 56.85267 220.028 56.85267 M 220.10933 52.086 C 223.99466 52.086 225.37866 57.429734 227.088 61.39067 C 228.816 65.39587 236.40266 84.5364 236.40266 84.5364 L 231.396 84.5364 L 228.29066 76.28387 L 211.92666 76.28387 L 208.82133 84.5364 L 203.81466 84.5364 C 203.81466 84.5364 211.40266 65.39587 213.12933 61.39067 C 214.83866 57.429734 216.22266 52.086 220.10933 52.086" fill="#1c4f9c"/>
      <path d="M 173.912 28.814002 C 170.156 30.6688 166.444 33.414 162.64133 37.1688 C 145.37733 54.2156 159.392 70.44267 127.91826 90.94896 L 141.16133 83.2412 C 167.89466 61.974934 165.048 44.64587 173.912 28.814002" fill="#73d1e2"/>
      <path d="M 127.8364 91.46615 L 127.8364 90.7276 L 276.872 3.899469 L 276.872 4.6401357 L 127.8364 91.46615" fill="#1c4f9c"/>
    </g>
  </g>
</svg>
